img/logo-symbol-3.svg

<svg fill="none" height="33" viewBox="0 0 29 33" width="29" xmlns="http://www.w3.org/2000/svg" xmlns:xlink="http://www.w3.org/1999/xlink"><clipPath id="a"><path d="m0 0h28.5979v33h-28.5979z"/></clipPath><g clip-path="url(#a)"><path d="m14.2836 0 14.2836 8.24664v16.49326l-14.2836 8.2465-14.2836-8.2465v-16.49326z" fill="#fff"/><g fill="#000"><path d="m23.9746 24.7442 2.3119-1.3366v-9.8847l-2.3119 1.3367z"/><path d="m22.2641 25.7333-2.2802 1.3183v-9.8846l2.2802-1.3184z"/><path d="m15.9937 29.3588v-9.8847l2.2802-1.3183v9.8846z"/><path clip-rule="evenodd" d="m14.2836 0 14.2836 8.24664v16.49326l-14.2836 8.2465-14.2836-8.2465v-16.49326zm-.0001.665067 13.7135 7.917463h-6.6012l-7.1123 7.91747-13.713439-7.91747zm-13.713442 9.881033.000003 13.8714 13.713439 7.9174 13.7135-7.9174v-13.8714l-13.7135 7.9174z" fill-rule="evenodd"/></g></g></svg>

<svg width="29" height="33" viewBox="0 0 29 33" fill="none" xmlns="http://www.w3.org/2000/svg">
<g clip-path="url(#clip0_3522_2874)">
<path d="M14.2836 0L28.5672 8.24664V24.7399L14.2836 32.9864L0 24.7399V8.24664L14.2836 0Z" fill="white"/>
<path d="M23.9746 24.7442L26.2865 23.4076V13.5229L23.9746 14.8596V24.7442Z" fill="black"/>
<path d="M22.2641 25.7333L19.9839 27.0516V17.167L22.2641 15.8486V25.7333Z" fill="black"/>
<path d="M15.9937 29.3588V19.4741L18.2739 18.1558V28.0404L15.9937 29.3588Z" fill="black"/>
<path fill-rule="evenodd" clip-rule="evenodd" d="M14.2836 0L28.5672 8.24664V24.7399L14.2836 32.9864L0 24.7399V8.24664L14.2836 0ZM14.2835 0.665067L27.997 8.58253H21.3958L14.2835 16.5L0.570061 8.58253L14.2835 0.665067ZM0.570058 10.5461L0.570061 24.4175L14.2835 32.3349L27.997 24.4175V10.5461L14.2835 18.4635L0.570058 10.5461Z" fill="black"/>
</g>
<defs>
<clipPath id="clip0_3522_2874">
<rect width="28.5979" height="33" fill="white"/>
</clipPath>
</defs>
</svg>
